X:270
T:Buffoon
M:2/2
K:G
L:1/8
G3 A BAGA | B2 d2 d4 | G3 A BAGA | B2 A2 A4 |
G3 A BAGA | B2 d2 d4 | c2 B2 A2 dc | B2 G2 G4 ||
e3 f e2 d2 | e2 G2 G4 | e3 f  e2 d2 | e2 G2 G4 |
e3 f e2 d2 | c3 d c2 B2 | d2 cB A2 d2 | B2 G2 G4 ||
